X:1
T:6 Gesänge, Op.6
T:Der Schnee is zergangen
T:6 Gesänge, Op.6 
T:5. "Der Schnee is zergangen" "The Snow is all melted"
T:Robert Franz
T:Wilhelm Osterwald
T:OpenScore (CC0)
T:OpenScore (CC0)
C:Robert Franz
Z:Wilhelm Osterwald
Z:OpenScore (CC0)
%%score 1 { ( 2 4 6 ) | ( 3 5 ) }
L:1/8
Q:1/4=116
M:6/8
K:E
V:1 treble nm="Singstimme\nVoice"
V:2 treble nm="Pianoforte"
V:4 treble 
V:6 treble 
V:3 bass 
V:5 bass 
V:1
"^Leicht, zart""^Allegretto grazioso" z6 | z2 z z2!p! B | B3 E2 F | G3 E2 E | A3/2 A/ A c2 c | %5
w: |Der|Schnee ist zer-|gan- gen, der|Win- ter ist fort, ist|
w: |The|Snow is all|melt- ed, the|win- ter's a- sleep, a-|
 F2 z z2!mf! A | G G G c2 e | d3 c2!p! f | B3/2 B/ B d2 B |!>(! f6-!>)! | f2 z z2 z | %11
w: fort, nun|Lieb- chen, nun lass dein|Ban- gen, ich|hal- te mein Wort, mein|Wort.|_|
w: sleep, my|dar- ling, thy cares now|ban- ish, my|prom- ise I'll keep, I'll|keep.|_|
 z2 z z2!p! d | G3- G ^A B |!>(! c3!>)! B2 ^A | G3/2 G/ G B2 G |!>(! f3-!>)! f2!p! d | %16
w: Der|Lenz _ fliegt ge-|schwin- de, ist|da, wie zur Nacht ein|Dieb, _ doch|
w: The|Spring _ tra- vels|swift- ly, flies|quick as the car- rier|dove _ than|
 ^A3/2 A/ A (^e^^c) A | d3 ^A2 ^^F | ^A3 A2 A | d3{/^^c} ^e3 | d3- d2 z | z6 | z2 z z2!p! B | %23
w: schnel- ler als Früh- * lings-|\- win- de fliegt|Lie- be zum|Lieb, zum|Lieb. _||Und|
w: bree- zes, or bird, _ more|deft- ly flies|Lov- er to|meet his|love. _||Be-|
 B3 E2 F | G3 E2 E | A3/2 A/ A c3/2 A/ F |!>(! d3-!>)! d2!mf! G | G G G c2 e | d3 F2 A | %29
w: eh' noch der|Mor- gen die|Veil- chen,  die er- sten, ge-|grüsst, _ sind|all' dei- ne ban- gen|Sor- gen hin-|
w: \- fore the first|vio- let re-|ceives the glad greet- ing of|day, _ will|all thy deep fears and|sor- rows, al-|
 G G G c2 e | d2 z z2!mf! c |"^cresc." B B B e2 g | f3 e2!p! (d/c/) | B3 B2 B | B3- B2 z | z6 |] %36
w: weg schon ge- küsst, ge-|küsst, sind|all' dei- ne ban- gen|Sor- gen hin- *|weg schon ge-|küsst. _||
w: rea- dy be kissed a-|way, will|all thy deep fears and|sor- rows be *|kis- sed a-|way. _||
V:2
!p!!<(! ([B,-B]6!<)! |!>(! [B,E]3)!>)! [A,DF]3 | (E/G/B,/E/[I:staff +1]G,/B,/ E,2)[I:staff -1] z | %3
 (E/G/B,/E/[I:staff +1]G,/B,/ E,2)[I:staff -1] z |!<(! [CEA]>[CEA][CEA]!<)! !arpeggio![F,CEc]3 | %5
 [F,DF]3- [F,DF]2 z |!mf! (C/E/[I:staff +1]G,/C/E,/G,/ C,2)[I:staff -1] z | %7
 (E/F/C/E/[I:staff +1]^A,/C/ F,2)[I:staff -1] z | [B,D]>[B,D][B,D] [B,D]3 |!<(! [B,B]6-!<)! | %10
 [B,B]3!>(! [C^Ac]3 | [B,B]2!>)! z z2 z |!p! [DG]>[DG][DG] [DG]2 z | [D^^F]>[DF][DF] [DF]2 z | %14
 [DG]>[DG][DG] [DG]2 z |!mf! f3- f2 z |!p! [^A,D]>[A,D][A,D] [G,^^C]2 z | %17
 [^^F,D]>[F,D][F,D] [F,D]2 z |!<(! ([^^F,D]>[F,D][F,D] [F,D]2 [G,^E]!<)! | %19
 [^A,^^F]3)!>(! ([G,^^C]3 | [^^F,D]3- [F,D]2)!>)! z |!p! ([=A,D]>[A,D][A,D] [A,D]3- | %22
 [Bb]2) z z2 z |!p! (E/G/B,/E/[I:staff +1]G,/B,/ E,2)[I:staff -1] z | %24
 (E/G/B,/E/[I:staff +1]G,/B,/ E,2)[I:staff -1] z |!<(! [CEA]>[CEA]!<)![CEA] [CF]3 | %26
!>(! [^B,DG]3-!>)! [B,DG]2 z |!mf! (C/E/[I:staff +1]G,/C/E,/G,/ C,2)[I:staff -1] z | %28
 (C/D/[I:staff +1]A,/C/F,/A,/ D,2)[I:staff -1] z | (E/G/C/E/[I:staff +1]G,/C/ E,2)[I:staff -1] z | %30
 (D/F/C/D/[I:staff +1]A,/C/ F,2)[I:staff -1] z |"_cresc." (G/B/E/G/B,/E/ G,2) z | %32
 (E/F/C/E/^A,/C/ F,2) z | ([B,-B]6 |!mf! [B,E]3)!>(! [A,DF]3 | [G,E]3-!>)! [G,E]2!pp! z |] %36
V:3
!ped! ([G,,E,]>[G,,E,][G,,E,] [G,,E,]2!ped-up! [A,,F,] | [B,,G,]3 [B,,,B,,]3) | %2
"^leggiero"!ped! !arpeggio![E,,-B,,-G,]3 [E,,B,,]2!ped-up! z | %3
!ped! !arpeggio![E,,-B,,-G,]3 [E,,B,,]2!ped-up! z | %4
!ped! [F,,,F,,]>[F,,,F,,][F,,,F,,] [A,,,A,,]3!ped-up! | [B,,,B,,]3- [B,,,B,,]2 z | %6
!ped! !arpeggio![C,,-G,,-E,]3 [C,,G,,]2!ped-up! z | %7
!ped! !arpeggio![F,,-C,-^A,]3 [F,,C,]2!ped-up! z |!ped! G,,>G,,G,, G,,3!ped-up! | %9
!ped! F,6-!ped-up! | F,3 E,3 | !arpeggio![B,,,F,,D,]2 z z2 z | %12
!ped! [G,B,]>[G,B,][G,B,] [G,B,]2 z!ped-up! |!ped! [G,C]>[G,C][G,C] [G,C]2!ped-up! z | %14
!ped! [G,B,]>[G,B,][G,B,] [G,B,]2!ped-up! z |!ped! F3- F2!ped-up! z | %16
!ped! [^^F,,D,]>[F,,D,][F,,D,]!ped-up! [^A,,^E,]2 z | %17
!ped! [D,,^A,,]>[D,,A,,][D,,A,,] [D,,A,,]2!ped-up! z |!ped! [^A,,,^A,,]6-!ped-up! | %19
 [A,,,A,,]3 [^A,,,^A,,]3 | [D,,^A,,]3- [D,,A,,]2 z |!ped! [B,,,B,,]6- | [B,,,B,,]2!ped-up! z z2 z | %23
!ped! !arpeggio![E,,-B,,-G,]3 [E,,B,,]2!ped-up! z | %24
!ped! !arpeggio![E,,-B,,-G,]3 [E,,B,,]2!ped-up! z | %25
!ped! [F,,,F,,]>[F,,,F,,][F,,,F,,] [A,,,A,,]3!ped-up! | [G,,,G,,]3- [G,,,G,,]2 z | %27
!ped! [E,,,E,,]3- [E,,,E,,]2!ped-up! z |!ped! [F,,,F,,]3- [F,,,F,,]2!ped-up! z | %29
!ped! [G,,,G,,]3- [G,,,G,,]2!ped-up! z |!ped! [A,,,A,,]3- [A,,,A,,]2!ped-up! z | %31
!ped! [B,,,B,,]3- [B,,,B,,]2!ped-up! z |!ped! [F,,,F,,]3- [F,,,F,,]2!ped-up! z | %33
!p!!<(!!ped! ([G,,E,]>[G,,E,][G,,E,]!<)! [G,,E,]2!ped-up! [=A,,F,] | [B,,G,]3 [B,,,B,,]3) | %35
 [E,,B,,]3- [E,,B,,]2 z |] %36
V:4
 x6 | x6 | x6 | x6 | x2 x x!>(! x x!>)! | x6 | x6 | x6 | x6 | x2 x x x x | x6 | x6 | x6 | x6 | x6 | %15
 z3/2 [FB]/[FB] [FB]2 x | x6 | x6 | x6 | x6 | x6 | x6 | [A,D]2 x x2 x | x6 | x6 | x6 | x6 | x6 | %28
 x6 | x6 | x6 | x6 | x6 | x6 | x6 | x6 |] %36
V:5
 x6 | x6 | x6 | x6 | x6 | x6 | x6 | x6 | x6 | ([D,,B,,]>[D,,B,,][D,,B,,] [D,,B,,]2 [E,,C,] | %10
 [F,,D,]3) F,,3 | x6 | x6 | x6 | x6 | [D,B,]>[D,B,][D,B,] [D,B,]2 x | x6 | x6 | x2 x x x x | x6 | %20
 x6 | x6 | x6 | x6 | x6 | x3 x x x | x6 | x6 | x6 | x6 | x6 | x6 | x6 | x6 | x6 | x6 |] %36
V:6
 x6 | x6 | x6 | x6 | x6 | x6 | x6 | x6 | x6 | x6 | x6 | x6 | x6 | x6 | x6 | x6 | x6 | x6 | x6 | %19
 x6 | x6 | x5"^L.H." [Bb] | x6 | x6 | x6 | x6 | x6 | x6 | x6 | x6 | x6 | x6 | x6 | x6 | x6 | x6 |] %36

